X:1
T:Snow Mountain Theme
T:Cool Cool Mountain Theme
T:Koji Kondo Transcribed by Mitch Norris Arranged for piano by Ron O'Dell Performed by Tom Brier Performance transcribed to MIDI by: 
T:from Super Mario 64 as improvised by Tom Brier from an arrangement by Ron O'Dell 
T:Julian Kökeny Cezary Sławecki Wei Le (paid by Emlyn Lewis) 
T:https://musescore.com/user/19465036/scores/6277613
C:Tom Brier
%%score { ( 1 3 4 5 ) | 2 }
L:1/8
Q:1/4=123
M:2/4
K:C
V:1 treble nm="Piano" snm="Pno."
V:3 treble 
V:4 treble 
V:5 treble 
V:2 bass 
V:1
"^Allegretto" (3[eg][^d^f][eg] [=fa] z | (3[df][^ce][df] [eg] z | (3[ce][B^d][ce] [=df] z | %3
 [FGBd]4 ||!f! [ce]2 z [ce] | z .[eg] [ea].[eg] | c2{^d} e2 | d2 c2 |{^G} [FA]2 z [FA]- | %9
 [FA].[Fc] [FAd].[Fc] | A2 d2 | c2 BA | [EG]2 z [EG]- | %13
 [EG]3/2"^quasi gliss."(A/4B/4 c/4d/4e/4f/4g) | z [EG]3- | [EG] z [EG][eg] | z [EG]2 z | %17
 [EG]2 [cg]2 | z g ag | ba gf | [ce]2 z [ce] | z .[eg] a.g | _b2 c'2 |{_bc'} b2 ag | %24
{^g} [dfa]2 z [dfa]- | [dfa].[fac'] [fad'].[fac'] | [^fa]2 [fad']2 | [^fac']2 [fb][da] | %28
 [eg]2 z [eg]- | [eg](g/4f/4e/4c/4 A2) | [eg]2 z [eg] | z2 [Be]2 | [EGc]4 | z4 | z .C .D.E | %35
 .F.G .A.B ||[Q:1/4=125]{^d} [ce]2 z{d} [ce] | z/ [Gceg]e/- [Acea][Gce] | [EGc]2 c/B/c/d/ | %39
 e/d/c/e/ d/c/A/G/ | [FA]2 z [FA] | z/ [Fc]F/- [FAd][Fc] | [^FA]2 A/^G/A/B/ | c/d/c/B/ A/^G/A/B/ | %44
 [EG]2 z [EG]- | [EG](G/4A/4B/4c/4 d/4e/4f/4^f/4g) | z [G_B]2 [GB]- | [GB]/_B/c/B/ [EG][eg] | %48
 z2 [EG]2 | z [EG] [dg]2 | [Bd].[Gg] [Aa].[Gg] |{[^A^a]} .[Bb][=A=a]/[Gg]/- [Gg]/[_G_g]/[Ff] | %52
[Q:1/4=128] [Gce]2 z [Gce] | z/ [Gceg]e/- [Aea][Gg] | [_B^c_b]G/[EB]/- [EB]/G/[EB] | %55
 G/[EA]G/ _B/G/E/D/ | [Afa]2 z [Adfa]- | [Adfa].[cfac'] [dfad'].[cc'] | [^Fc]A/[FB]/- [FB]/A/[Fc] | %59
 A/[^FB]A/ c/A/F/E/ | [eg]2 z [eg]- | [eg](3g/f/e/ G2 | [eg]2 z{^d} [eg] | G2- [GBe]2 | %64
{B} [EGc]3 G | AB cd | [EGc]2 z2 | z4 ||!mf! [Afa]4- | [Afa] A2 a | [Gceg]4 | [Aa]4 | z3 B- | %73
 z2 [Ff]2 | [Gce]4 | z2 (3[Ff][^F^f][Gg] | [Afa]3 c- | z2 [fa]2 | [eg]3 G- | [Gcea]2 [ceg]2 | %80
 [df]3 e- | e2 [FBd]2 | [EGc]4- | [EGc]4 |!8va(!{a} (6:4:6x/x/x/x/x/x/ (6:4:6x/x/x/x/x/x/ | %85
 z [ac']2 [ac'a'] | (6:4:6x/x/x/x/x/x/ (6:4:6x/x/x/x/x/x/ | z [ac'e'a']2 [ee'] | %88
 (6:4:6x/x/x/x/x/x/ (6:4:6x/x/x/x/x/x/ | z [fbf']2 [gbd'g'] | %90
 (6:4:6x/x/x/x/x/x/ (6:4:6x/x/x/x/x/x/ | (3[c'e']/e/[c'e']/.e z2 | %92
{xxx} (6:4:6x/x/x/x/x/x/ (6:4:6x/x/x/x/x/x/ | (6:4:6x/x/x/x/x/x/ [f'a'][aa'] | %94
 (6:4:6x/x/x/x/x/x/ (6:4:6x/x/x/x/x/x/ | (3[e'g']/g/[e'g']/g [ac'e'a'][ee'] | %96
 (6:4:6x/x/x/x/x/x/ (6:4:6x/x/x/x/x/x/ | (6:4:6x/x/x/x/x/x/ [dbd']2 |!<(! [cegc']4!8va)! | %99
 z4!<)! ||[Q:1/4=130]!f! [Aa]/B/c/[Aa]/ B/c/[Aa]/B/ | c/[Aa][cfac']/- [cfac']/f/-[Acfa] | %102
 [Geg]^d/e/ g/[Aa]e/- | [Gceg]^d/[Ge]/- [Ge]/=d/c/F/- | [Ff]/^G/A/[Ff]/ G/A/[Ff]/^A/ | %105
 B/[Gg]/^A/B/ [Ff]/^G/=A | [Gce](3(G/A/B/ (3c/d/^d/(3e/f/^f/ | %107
 (3g/a/b/(3c'/d'/^d'/!8va(! (3e'/f'/g'/c'')!8va)! | [Aa]/c/f/[Aa]/ c/f/[Aa]/c/ | %109
 f/!8va(![gf'g']f'/- [ac'f'a'][ff'] | [gc'e'g']!8va)![Ge]/[Ec]/- [Ec]/!8va(![c'a']/[ae']!8va)! | %111
 [ca]/[Ae]!8va(![bg']/ [ge'][gc'e']!8va)! | [ff']/a/d'/f'/ [ge']/e/g/b/ | %113
 [fd']/d/g/[ee']/- [ee']/[_e_e']/[dd'] | [cegc']4 |[Q:1/4=128] z2{g^gab} c'=g || %116
"_(l.h)"!mf!"^delicato" c'[eg] c'[eg] | z e{b} c'e | c'e c'[eg] | z e{b} c'e | [fa]2 _ef- | %121
 f_e a2 | a2 _ef- | f_e a2 | [ec']2 g{ab}c'- | c'e [_bc']e | c'2 gc'- | c'g{ab} c'f | [fa]2 _ef- | %129
 f_e [fa]f | [gb]2 df- | fd bf ||!f![Q:1/4=132] [cegc']>[cc'] [eg][cc']- | %133
 [cc']/[ce_bc'][cc']/ [egb][cc'] | [ceg_bc']>[cc'] [eg][cc']- | [cc']/[cc'][g_b]/ [cc'][gb] | %136
 [Acfa]>[Aa] [c_ef][Acefa]- | [Acefa]/[Aa][Aa]/ [c_ef][Aa] | [c_ef]>[Aa] [ce]/A/c/a/ | %139
 [c_e]/A/c/a/ [ce]/A/c/a/ | [ce](3c/d/^d/ e/[gc']g/ | [eb]/c/e/[c_bc']/- [cbc'][ceb] | %142
 [ceg](3c/d/^d/ e/c'c/ | [eb]/c/e/[ca]/- [ca]/e/[cg] | [Afa][A_e] [Aef][Ae] | %145
 [Aa]_e/[Af]/- [Af]/[Aeg]f/ | [_Bd_b][Bb] [Ada][_A_a] | [GBg]f/d/- d/B/G || %148
[Q:1/4=134] [^d^d']/[ec'e'][dd']/ [ec'e'][dd']/[ec'e']/- | %149
 [ec'e']/[gc'e'g']e'/- [ac'e'a'][gc'e'g'] | [egc'e'][_e_e'] [dd'][cc'] | %151
 [ec'e'][_e_e']/[dd']/- [dd']<[cc'] | [Acfa][^G^g]/[Acfa]/- [Acfa]/[dfad']a/- | %153
 [cfac'][cfac']/[dfad']/- [dfad']/[cfac']A/- | [Ac_ea][d^fd'] [_d_d'][cfc'] | %155
 [d^fd'][_d_d']/[cfc']/- [cfc']/a/f | [Aa]/[Geg]e/- e[Be]- | [GBeg]2{ABce} [gg']2 | %158
 [EG_B_de]>[EGBde]- [EGBde][EGBde]- | [EGBde](3(_B/_d/e/ [gc'e']2) | z [EA]- [EA][EG]- | %161
 [EG]G [cg]2 | [Bd].[Gg] [Aa][Gg] | [_B_b][Aa]/[Gg]/- [Gg]/[^D^d]/[Ee] | %164
[Q:1/4=135] [EGce]>[EGce]- [EGce][Gceg]- | [Gceg]<[Acea] [Gceg]>[_Be_b]- | %166
 [Beb][cec']- [cec']<[_Be_b] | [A^cea]>[_Ace_a]- [Acea]<[Gceg] | %168
[Q:1/4=136] [FAdf]>[FAdf]- [FAdf][Adfa]- | [Adfa]<[cfac'] [dfad']>[c^fac']- | %170
 [cfac'][_e^fa_e']- [efae']<[dfad'] | [_d^fa_d']>[c_efc']- [cefc']/a/f/e/ | [Bb]>B- [Bb]>g | %173
 b/g/e/[G_d]/- [Gd]/e/[Gd] | g2 [eg]2 | G[^A^d]/[Be]/- [Be]/[Ad]/[Be] | %176
 x z/[I:staff +1] G/[I:staff -1] z/[I:staff +1] A/[I:staff -1] z/[I:staff +1] G/ | %177
[I:staff -1] z/[I:staff +1] _B/[I:staff -1] z/[I:staff +1] A/[I:staff -1] z/[I:staff +1] G/[I:staff -1] z/[I:staff +1] ^D/ | %178
[I:staff -1] z/[I:staff +1] E/[I:staff -1] z/[I:staff +1] G/[I:staff -1] z/[I:staff +1] G,/[I:staff -1] z/[I:staff +1] A,/ | %179
[I:staff -1] z/[I:staff +1] C/[I:staff -1] z/[I:staff +1] D/[I:staff -1] z/[I:staff +1] E/[I:staff -1] z/[I:staff +1] G/ || %180
[I:staff -1]{^d} [ce]3/2{d}[ce]/- [ce]{d}[ce]- | [ce]/[ceg]e/ [ca][ceg] | %182
 [EG_Bc]/ z [EGBc]/- [EGBc]2- | [EGBc]4 |{^G} [FA]3/2{G}[FA]/- [FA]{G}[FA]- | [FA]<[Fc] [FAd][Fc] | %186
 [^FA]4- | [FA]4 | [EG]>[EG]- [EG]G- | G(3(A/c/e/ g/e/c/A/) | [EG]>[EG]- [EG][EG]- | %191
 [EG](G/4_B/4c/4e/4 g/e/c/B/) | [EG]>[EG]- [EG][EG]- | [EG]/[Gdg][^c^f]/ [dg][Ada] | %194
 z/ (G/g/)(A/ a/)(G/g/)(^A/ | ^a/)(B/b/)(A/ =a/)(G/g) | [ce](3c/d/^d/ e/ae/- | %197
 [ceg]^d/e/- e/[ca]g/ | _b/g/e/^c/ (3b/a/g/e/c/ | c'/e/^c/[e_b]/- [eb]/g/e/c/ | %200
{^g} [fa]>[fa]- [fa][fa]- | [fa]/[fac']d'/- [fad'][fac'] | [^f_e']/d'/_d'/c'/ [fe']/=d'/_d'/c'/ | %203
 [^f_e']/d'/c'/[fe']/- [fe']/d'/c' | g'>e'- g'>e'- | g'>_d'- g'>=d'- | g'>e'- g'>e'- | %207
 g'>[gbe']- [gbe']/[_g_e']/[fd'] | c'>g- e'>_b | [fac'f']/[fac'f']c'/- [_gc'_g']/[gg']c'/- | %210
 [!courtesy!=gc'e'!courtesy!=g']/[gc'e'g']e'/ [^gd'^g']/[gd'g']e'/- | %211
 a'>[eg^c'e']- [egc'e']/c'/g/e/ | [eae'][_e_e'] [dad']a | [cfc']a/[cfc']/- [cfc']/a/f/c/ | %214
 [Geg][Geg] [^F^f]/[Geg]e/- | [B^ceb][Aca]/g/- g/e/c/A/- | [FAf]/[FAf][FAe]/- [FAe]/d/c/A/ | %217
 [FBe]>[FBd]- [FBd]/B/A/G/ |!>(! [Ec]A GE | (5:4:5C/D/E/F/G/ AF!>)! || %220
[Q:1/4=134]!mf!"^delicato" z4 | (Ac fa) | z4 | (Gc eg) | z4 | (FB dg) | z4 | (Ee dc) | z4 | %229
 (Ac fa) | z4 | (Gc eg) | z4 | (Fe dB | [Ec]4) | z!8va(! a a'a |"^dolce" a'3 a'- | a' c'2 a' | %238
 g'3 g'- | g' a'2 e' | f'3 f' | (3b2 g'2 f'2 | (3e'2 c'2 b2 | (3_b2 c'2 d'2 | a>c'- c'f' | %245
 a'2 f'2 | g>c'- c'e' | g'>a'- a'e' | f'>f- ff' | [be']2 d'2 | [egc']4-!8va)! | [EGc]2 z2 | %252
{fg^g} a2 a2 | c'2 a2 | g2 c'2 | !///-!a c' ge | f2 df- | fg f/g/f/d/ | e2 f2 | ^f2 g2 | a3 a | %261
 c'a fa | g3 e | c'a ge | f3 f | ePd cB | c4 |!<(! z [cc'] [Bb][_B_b]!<)! | %268
!f!"^Con spirito" [Acfa]2!8va(! [ac'f'a']2!8va)! | [Acfa]>!8va(![ac'f'a']- [ac'f'a']!8va)![Acfa] | %270
 [Gceg]2!8va(! [gc'e'g']2!8va)! | [Gceg]>!8va(![ac'e'a']- [ac'e'a'][ec'e'] | %272
 [fad'f']2!8va)! [FAdf]2 |!8va(! [gbd'g']2!8va)! [GBdfg]2 | [c'e']/e/g/c'/ f'/f/a/c'/ | %275
 [^d'^f']/a/c'/d'/ [e'g']/g/c' |!8va(! [b^g']<[c'a']!8va)! [B^g]<[ca] | %277
!8va(! [b^g']/[c'a']!8va)![ca]/- [ca]/b/[fc'] | [^d^f]<[eg]!8va(! [c'^d'^f']<[c'e'g']!8va)! | %279
 [c^d^f]/[ceg][egd']/- [egd']/b/g/e/ | z [fad'f']- [fad'f']<[eae'] | [dgbd']>[^d^d'] [ee'][=d=d'] | %282
 [cegc'][Aa] [Gg][Ee] | [Cc][cg_bc'] [B=b][cc']/c/ | [^gb]/[ac']/f/c/ [gb]/[ac']/f/c/ | %285
 [^gb]/[ac'][fad']/- [fad']/[fac']c/ | [^fb]/[gc']/e/c/ [fb]/[gc']/e/c/ | %287
 [^fb]/[gc'][egd']/- [egd']/[egc']A/ | [^ce]/[df]A/ [ce]/[df]A/ | [^ce]/[df][GBe]/- [GBe]/G/d/^d/ | %290
 [ce]/G/c/e/ [df]/A/d/f/ | [^d^f]/A/c/d/ [eg]/G/c/e/ | (A/c/f/a/!8va(! c'/f'/(3a'/c''/f''/ | %293
 a''/f''/c''/a'/!8va)! f'/c'/a) | (G/c/e/g/!8va(! c'/e'/(3g'/c''/e''/ | %295
 g''/e''/c''/g'/!8va)! e'/c'/g) | [Adf]/F/A/d/ [Ae]/F/d | [FBd]/F/B/[Fd]/- [Fd]/B/A/G/ | %298
 [Ec] z/ A/ z/ G/ z/ E/ | z/ C/ z/ B,/ z/ _B,/ z/ A,/- | [A,CF]/[A,CF]C/- [CFA]/[CFA]F/- | %301
 [FAc]/[FAc]C/- [CFA]/[CFA]C/- | [CEG]/[CEG]E/- [EGc]/[EGc]G/- | [Gce]/[Gce]E/- [EGc]/[EGc]A/- | %304
 [Adf]/[Adf]F/- [FBd]/[FBd]G/- | [GBdg]/[GBdg]G/- [GBdf]/[GBdf]c/- | %306
 [Ece]/[EGce]F/- [Fdf]/[Fdf]^F/- | [F^d^f]/[^Fdf]G/- [Geg]/[Geg]A/- | %308
 [Afa]/[Afa]c/- [cac']/[cac']d/- | [dad']/[dad']c/- [cac']/[cac']G/- | %310
 [Gceg]/[Gceg]c/- [cec']/[cec']A/- | [Acea]/[Acea]E/- [Ece]/[Ece]F/- | %312
 [Fdf]/[Fdf]E/- [EGe]/[EGe]D/- | [DBd]/[DBd]E/- [EBe]/[EBe]E/- | [Ec][EB] [E_B]G | %315
!>(! EC B,_B,!>)! ||[M:4/4]!mf! A,4 Acfa | c'cac' [Acfa]2 [Acf]2 | [Gceg]4 Gceg | %319
 g'ge'c c'Gg[^G^g] |"_cresc." [Adfa]4 [FAdf]4 | [FBdg]4 [Bd]2 [Ff]2 | [EGce]2 [Gc]2 [FBdf]2 [Bd]2 | %323
 [^FAc^d^f]2 [Acd]2 [Gceg][cegc'][Bb][_B_b] |[Q:1/4=130]!f! [Acfa]2 [ac'a']2 [gc'g']2 [fc'f']2 | %325
 (6:4:6[ac']/c/[ac']/c/[ac']/c/ [ac']2 [df_ad']2 [cfac']2 | %326
 [Gceg]2{[^f^f']} [ge'g']2 [egc'e']2 [cc']2 | (6:4:6[ea]/A/[ea]/A/[ea]/A/ z2 [EGce]2 [Gcg]2 | %328
[Q:1/4=128]"^rit." [FAdf]4[Q:1/4=118] [Adf]2 [Ad]2[Q:1/4=124] | %329
[Q:1/4=112] [GBe]4[Q:1/4=108] [GBd]2 [^GB]2 | %330
[Q:1/4=104]!>(! [EAc]2 [Ace]2[Q:1/4=96] [cea]2 [cgc']2 | %331
[Q:1/4=80] !arpeggio![e^fac'e']2 [cfc']2[Q:1/4=70] [e_ac'e']2[Q:1/4=60] [c=fac']2!>)! | %332
[Q:1/4=75]!mf! [egc'e'][cegc'][Gceg][cegc'][Q:1/4=67]"^rall." [^ce_b][cea][GAce][Gcg] | %333
[Q:1/4=60] [FAdf]2[Q:1/4=53] [Adfa]2[Q:1/4=45] !arpeggio![df_ad']2 !arpeggio!!fermata![cfac']2 | %334
[M:2/4][Q:1/4=75]!mp!"^a tempo" [ec']2 gc'- |[Q:1/4=73] c'e [_bc']e |[Q:1/4=72] [ac']2 [cf][ac']- | %337
[Q:1/4=70] [ac']c _a2 |[Q:1/4=67]"^rall." [ceg]2 [ce]2 |[Q:1/4=60] d2 Ge | %340
[Q:1/4=55] [Ac]2[Q:1/4=50] Fd |[Q:1/4=47] [_Ac]2[Q:1/4=35] A[Ad] | %342
[Q:1/4=75] !arpeggio![EGc]2!8va(! !arpeggio![ge']2 | %343
[Q:1/4=70] !arpeggio![c'a']2[Q:1/4=60] !arpeggio![c'g']2 |[Q:1/4=75] !arpeggio![e'g'e'']4- | %345
 [e'g'e'']4!8va)! |] %346
V:2
 z4 | z4 | z4 | z .[G,,,G,,] [A,,,A,,][B,,,B,,]/C,,/- || [C,,G,,E,].[G,CE] [G,,,G,,].[G,CE] | %5
 [C,,C,].[G,CE] [G,,,G,,].[G,CE] | [C,,C,].[G,C] [G,,,G,,].[G,C] | %7
 [C,,C,].[C,,C,] [D,,D,].[E,,E,] | [F,,C,F,].[F,A,C] [C,,C,].[F,A,C] | %9
 [F,,C,F,].[F,A,C] [C,,C,].[F,A,C] | [^F,,^F,].[F,A,C] [D,,D,].[D,F,A,C] | %11
 [^F,,^F,].[D,F,A,C] [D,,D,].[D,F,A,C] | [E,,E,].[G,B,D] [B,,,B,,].[G,B,D] | %13
 [E,,E,].[G,B,D] [B,,,B,,].[G,B,D] | [_E,,_E,].[E,G,_B,_D] [_B,,,_B,,].[E,G,B,D] | %15
 [_E,,_E,].[E,G,_B,_D] [_B,,,_B,,].[E,G,B,D] | [D,,D,].[F,A,C] [A,,,A,,].[F,A,C] | %17
 [D,,D,].[F,A,C] [D,,D,].[F,A,C] | [G,,,G,,].[G,B,DF] [G,,G,].[G,B,DF] | %19
 [G,,,G,,].[G,,,G,,] [A,,,A,,].[B,,,B,,]/C,,/- | [C,,G,,E,].[G,CE] [G,,,G,,].[G,CE] | %21
 [C,,C,].[G,CE] [G,,,G,,].[G,CE] | [^C,,^C,].[C,E,G,_B,] [_B,,,_B,,].[C,E,G,B,] | %23
 [^C,,^C,].[C,E,G,_B,] [C,,C,].[C,E,G,B,]/D,,/- | [D,,A,,F,].[F,A,D] [A,,,A,,].[F,A,D] | %25
 [D,,D,].[F,A,D] [A,,,A,,].[F,A,D] | [^F,,^F,].[_E,F,A,C] [_E,,E,].[E,F,A,C] | %27
 [C,,C,].[_E,^F,A,C] [A,,,A,,].[E,F,A,C] | [E,,E,].[G,B,D] [B,,,B,,].[G,B,D] | %29
 [_E,,_E,].[G,_B,_D] [E,,E,].[G,B,D] | [D,,D,].[F,A,C] [D,,D,].[F,A,C] | %31
 [G,,,G,,].[G,B,D] [E,,E,].[G,B,D] | [C,,C,].[E,G,C] [G,,,G,,].[E,G,C] | %33
 [C,,C,].[G,,,G,,] [A,,,A,,][B,,,B,,] | [C,,C,].[C,,C,] .[D,,D,].[E,,E,] | %35
 .[F,,F,].[G,,G,] .[A,,A,].[B,,B,]/C,,/- || [C,,G,,E,].[G,CE] [G,,,G,,].[G,CE] | %37
 [C,,C,].[G,CE] [G,,,G,,].[G,CE]/C,,/- | [C,,E,].[E,G,C] [G,,,G,,].[E,G,C] | %39
 [C,,C,].[C,,C,] [D,,D,].[E,,E,] | [F,,C,F,].[F,A,C] [C,,C,].[F,A,C] | %41
 [F,,F,].[F,A,C] [C,,C,].[F,A,C] | [^F,,^F,].[D,F,A,C] [D,,D,].[D,F,A,C] | %43
 [^F,,^F,].[D,F,A,C] [D,,D,].[D,F,A,C] | [E,,E,].[G,B,D] [B,,,B,,].[G,B,D] | %45
 [E,,E,].[G,B,D] [E,,E,].[G,B,D] | [_E,,_E,].[G,_B,_D] [E,,E,].[G,B,D] | %47
 [_B,,,_B,,].[G,_B,_D] [_E,,_E,].[G,B,D] | [D,,D,].[F,A,C] [A,,,A,,].[F,A,C] | %49
 [D,,D,].[F,A,C] [A,,,A,,].[F,A,C] | [G,,,G,,].[G,,G,] [A,,A,].[G,,G,] | %51
{[^A,,^A,]} .[B,,B,][=A,,=A,]/[G,,G,]/- [G,,G,]/[_G,,_G,]/.[F,,F,]/C,,/- | %52
 [C,,G,,E,].[G,CE] [G,,,G,,].[G,CE] | [C,,C,].[G,CE] [G,,,G,,].[G,CE] | %54
 .[^C,,^C,]>.[C,E,G,_B,]- [C,E,G,B,]/ z/ .[C,E,G,B,] | z/ .[^C,E,G,_B,] z/ .[C,E,G,B,] z/ D,,/- | %56
 [D,,A,,F,].[F,A,D] [A,,,A,,].[F,A,D] | [D,,D,].[F,A,D] [A,,,A,,].[F,A,D] | %58
 .[^F,A,C_E] z/ .[F,A,CE]/- [F,A,CE]/ z/ .[F,A,CE] | z/ .[^F,A,C_E] z/ .[F,A,CE] z/ E,,/- | %60
 [E,,B,,G,].[G,B,D] [B,,,B,,].[G,B,D] | [_E,,_E,].[G,_B,_D] [E,,E,].[G,B,D] | %62
 [D,,D,].[F,A,C] [A,,,A,,].[F,A,C] | [D,,D,].[D,F,G,B,] [G,,,G,,].[D,F,G,B,] | %64
 [C,,C,].[E,G,C] [G,,,G,,].[E,G,C] | [C,,C,].[E,G,C] [G,,,G,,].[E,G,C] | z [C,E,G,C] [D,D][E,E] | %67
 [D,D][C,C] [A,,A,][G,,G,] ||!ped! (F,A, CF- | F4)!ped-up! |!ped! (E,G, CE- | E4)!ped-up! | %72
!ped! (D,F, A,D)!ped-up! |!ped! (G,,F, B,2)!ped-up! |!ped! (C,E, G,C- | C4)!ped-up! | %76
!ped! (F,A, CF- | F4)!ped-up! |!ped! (E,G, CE- | E4)!ped-up! |!ped! (D,F, B,D)!ped-up! | %81
!ped! (G,,F, B,2)!ped-up! |!ped! (C,E, G,C | DC B,C)!ped-up! |[K:treble]!ped! (F,C AC | %85
 A2) z2!ped-up! |!ped! (E,C Gc | e2) z2!ped-up! |!ped! (D,A, DF |!8va(! B2)!8va)! [G,DF]2!ped-up! | %90
!ped! (C,E, G,C | B,_B, G,E,)!ped-up! |!ped! (F,A, CF | AF CA,)!ped-up! |!ped! (E,G, CE | %95
 GE CG,)!ped-up! |[K:bass]!ped! (D,F, B,D)!ped-up! |!ped! (G,,F, .B,2)!ped-up! | %98
 [C,C][C,C] [B,,B,][A,,A,] | [G,,G,][E,,E,] [D,,D,][C,,C,]/F,,/- || %100
 [F,,C,A,].[A,CF] [C,,C,].[A,CF] | [F,,F,].[A,CF] [C,,C,].[A,CF]/E,,/- | %102
 [E,,C,G,].[G,CE] [G,,,G,,].[G,CE]/C,,/- | [C,,G,,E,].[G,CE] [E,,E,].[G,CE] | %104
 [D,,D,].[F,A,D] [A,,,A,,].[F,A,D] | [G,,,G,,].[D,F,G,B,] [D,,D,].[D,F,G,B,]/C,,/- | %106
 [C,,G,,E,].[G,CE] [G,,,G,,].[G,CE] | [C,,C,].[G,CE] [E,,E,].[G,_B,CE]/F,,/- | %108
 [F,,C,A,].[A,CF] C,,.[A,CF]/F,,/- | [F,,A,].[A,CF] [F,,F,].[A,CF]/E,,/- | %110
 [E,,C,G,].[G,CE] [G,,,G,,].[G,CE]/C,,/- | [C,,E,].[G,CE] [G,,,G,,].[G,CE]/D,,/- | %112
 [D,,F,].[F,A,D] [D,,D,].[F,A,D] | [G,,,G,,].[D,F,G,B,] [G,,,G,,].[D,F,G,B,]/C,/- | %114
 [C,G,C][A,,A,] [G,,G,][E,,E,] | .[C,,C,]2 z2 ||!ped! x4 | x4!ped-up! |!ped! x4 | x4!ped-up! | x4 | %121
 x4 | x4 | x4 |!ped! x4 | x4!ped-up! |!ped! x4 | x4!ped-up! |!ped! x4 | x4!ped-up! |!ped! x4 | %131
 x2 z3/2 C,,/-!ped-up! || [C,,G,,E,][G,CE] [G,,,G,,].[G,CE] | [C,,C,].[G,_B,CE] [E,,E,].[G,B,CE] | %134
 [G,,G,].[G,_B,CE] [C,,C,].[G,B,CE] | [C,,C,].[^C,,^C,] [D,,D,][E,,E,]/F,,/- | %136
 [F,,C,A,].[A,CF] [C,,C,].[A,C_EF] | [F,,F,].[A,C_EF] [C,,C,].[A,CEF] | %138
 [A,,A,].[A,C_EF] [F,,F,].[A,CEF] | [C,,C,].[A,C_EF] C,,.[A,CEF]/C,,/- | %140
 [C,,G,,E,].[G,CE] [G,,,G,,].[G,_B,CE]/C,,/- | [C,,G,,E,].[G,_B,CE] [E,,E,].[G,B,CE]/C,,/- | %142
 [C,,G,,E,].[G,_B,CE] [G,,,G,,].[G,B,CE] | C,,.[G,_B,CE] E,,.[G,B,CE]/F,,/- | %144
 [F,,C,A,].[A,C_EF] [C,,C,].[A,CEF] | [F,,F,].[A,C_EF] [F,,F,].[A,CEF] | z4 | %147
 z .[G,,,G,,] [A,,,A,,][B,,,B,,]/C,,/- || [C,,G,,E,].[G,CE]!8vb(! G,,,!8vb)!.[G,CE]/C,,/- | %149
 [C,,G,,E,].[G,CE]!8vb(! G,,,!8vb)!.[G,CE]/C,,/- | [C,,G,,E,].[G,CE]!8vb(! G,,,!8vb)!.[G,CE] | %151
 [C,,C,].[C,,C,] [D,,D,][E,,E,]/F,,/- | [F,,C,A,].[A,CF] [C,,C,].[A,CF]/F,,/- | %153
 [F,,C,A,].[A,CF] [C,,C,].[A,CF] | [^F,,^F,].[F,C_E] [_E,,_E,].[F,CE] | %155
 [^F,,^F,].[F,C_E] [_E,,_E,].[F,CE] | [E,,E,].[G,B,E] B,,,.[G,B,E] | [E,,E,].[G,B,E] B,,,.[G,B,E] | %158
 [_B,,,_B,,].[G,_B,E] [G,,,G,,].[G,B,E] | [_B,,,_B,,].[G,_B,E] [B,,,B,,].[G,B,E] | %160
 [D,,D,].[D,F,A,] [A,,,A,,].[D,F,A,] | [D,,D,].[D,F,A,] [A,,,A,,].[D,F,A,] | %162
 z .[G,,G,] [A,,A,][G,,G,] | [_B,,_B,][A,,A,]/[G,,G,]/- [G,,G,]/[^D,,^D,]/[E,,E,]/C,,/- | %164
 [C,,G,,E,].[G,CE] [G,,,G,,].[G,CE] | [C,,C,].[G,CE]!8vb(! G,,,!8vb)!.[G,CE] | %166
 [^C,,^C,].[G,^CE] [C,,C,].[G,CE] | [^C,,^C,].[G,^CE] [C,,C,].[G,CE] | %168
 [D,,D,].[F,A,D] [A,,,A,,].[F,A,D] | [D,,D,].[F,A,D] [A,,,A,,].[F,A,D] | %170
 [^F,,^F,].[F,C_E] [F,,F,].[F,CE] | [^F,,^F,].[F,C_E] [F,,F,].[F,CE] | %172
 [E,,E,].[G,B,E] B,,,.[G,B,E] | [_E,,_E,].[G,_B,_E] [E,,E,].[G,B,E] | %174
 [D,,D,].[D,F,A,] [D,,D,].[F,A,D] | [G,,G,].[D,F,G,B,] [G,,,G,,].[D,F,G,B,] | %176
 [C,C][G,,G,] [A,,A,][G,,G,] | [_B,,_B,][A,,A,] [G,,G,][^D,,^D,] | %178
 [E,,E,][G,,G,] [G,,,G,,][A,,,A,,] | [C,,C,][D,,D,] [E,,E,][G,,G,]/C,,/- || %180
 [C,,G,,E,].[G,CE]!8vb(! G,,,!8vb)!.[G,CE] | C,,.[G,CE]!8vb(! G,,,!8vb)!.[G,CE] | %182
 [C,,C,]/ z [C,,C,]/ z [C,,C,]- | [C,,C,]/[E,,E,][_E,,_E,]/ [D,,D,][C,,C,] | %184
 [F,,,F,,].[F,A,C] C,,.[F,A,C] | F,,.[F,A,C] C,,.[F,A,C] | [^F,,^F,]/ z [F,,F,]/ z [F,,F,]- | %187
 [F,,F,]/[_E,,_E,][^F,,^F,]/ [=F,,=F,][E,,E,] | [E,,E,].[E,G,B,] [B,,,B,,].[E,G,B,] | %189
 [E,,E,].[G,B,E] [B,,,B,,].[G,B,E] | [_E,,_E,].[G,_B,_D] [_B,,,_B,,].[G,B,D] | %191
 [_E,,_E,].[G,_B,_D] [_B,,,_B,,].[G,B,D] | [D,,D,].[D,F,G,B,] [G,,,G,,].[D,F,G,B,] | %193
 [D,,D,].[D,F,G,B,] [G,,,G,,].[D,F,G,B,] | [D,,D,][G,,G,] [A,,A,][G,,G,] | %195
 [^A,,^A,][B,,B,] [=A,,=A,][G,,G,]/C,,/- | [C,,G,,E,].[G,CE]!8vb(! G,,,!8vb)!.[G,CE] | %197
 C,,.[G,CE]!8vb(! G,,,!8vb)!.[G,CE] | [^C,,^C,].[G,^CE] [C,,C,].[G,CE] | %199
 [E,,E,].[G,^CE] [^C,,^C,].[G,CE] | [D,,D,].[D,F,A,C] [A,,,A,,].[D,F,A,C] | %201
 [D,,D,].[D,F,A,C] [A,,,A,,].[D,F,A,C] | [_E,,_E,].[^F,C_E] [E,,E,].[F,CE] | %203
 [^F,,^F,].[F,C_E] [_E,,_E,].[F,CE] | [E,,E,].[G,CE] B,,,.[G,CE] | %205
 [_E,,_E,].[G,_B,_D] [E,,E,].[G,B,D] | [D,,D,].[F,A,C] [D,,D,].[F,A,C] | %207
 [G,,,G,,].[G,B,DF] [G,,,G,,].[G,B,DF]/C,,/- | [C,,G,,E,].[G,CE] [_B,,,_B,,].[G,_B,CE] | %209
 [A,,,A,,].[F,A,C] [_A,,,_A,,].[_G,C_E] | [G,,,G,,].[G,CE] [F,,,F,,].[G,_B,CE] | %211
 [E,,,E,,].[G,A,^CE] [A,,,A,,].[G,A,CE] | [D,,D,].[F,A,D] [D,,D,].[F,A,D] | %213
 [F,,F,].[F,A,D] [F,,F,].[F,A,D] | [G,,G,].[G,CE] [G,,G,].[G,CE]/E,,/- | %215
 [E,,G,].[G,A,^CE] [A,,,A,,].[G,A,CE] | [D,,D,].[F,A,D] [F,,F,].[F,A,D] | %217
 [G,,G,].[D,F,G,B,] [G,,G,].[D,F,G,B,] | CA, G,E, | (5:4:5C,/D,/E,/F,/G,/- G,2 ||!ped! (F,A, CF- | %221
 F4)!ped-up! |!ped! (E,G, CE- | E4)!ped-up! |!ped! (D,F, A,D- | D2) G,,2!ped-up! | %226
!ped! (C,E, G,C- | C4)!ped-up! |!ped! (F,A, CF- | F4)!ped-up! |!ped! (E,G, CE- | E4)!ped-up! | %232
!ped! (D,F, B,D- | D2) G,,2!ped-up! |!ped! (C,A, G,E, | C,4)!ped-up! |[K:treble]!ped! (FA cf | %237
 cA Fc)!ped-up! |!ped! (EG ce | Gc EG)!ped-up! |!ped! (DF Ad)!ped-up! |!ped! (Gd [fg]d)!ped-up! | %242
!ped! (CE Gc | GE Cc)!ped-up! |!ped! (FA cf | cA Ff)!ped-up! |!ped! (EG ce | cE [ce]G)!ped-up! | %248
!ped! (DF Ad)!ped-up! |!ped! (GB dG)!ped-up! |!ped! (cB _BG | ED C2)!ped-up! |!ped! [FA]4- | %253
 [FA]4!ped-up! |!ped! [EG]4- | [EG]4!ped-up! |!ped! [DA]4 | [GB]4!ped-up! |!ped! C2 D2 | %259
 ^D2 E2!ped-up! |!ped! F4- | F4!ped-up! |!ped! E4- | E4!ped-up! |!ped! D4!ped-up! | %265
!ped! G,4!ped-up! |!ped! CA GE!ped-up! | C3 z/[K:bass] F,,/- | [F,,C,A,].[A,CF] C,,.[A,CF] | %269
 F,,.[A,CF]!8vb(! F,,,!8vb)!.[A,CF] | E,,.[G,CE]!8vb(! G,,,!8vb)!.[G,CE] | %271
 C,,.[G,CE]!8vb(! G,,,!8vb)!.[G,CE] | D,,.[F,A,D]!8vb(! A,,,!8vb)!.[F,A,D] | %273
!8vb(! G,,,!8vb)!.[G,B,DF]!8vb(! G,,,!8vb)!.[G,B,DF] | C,,.[G,CE] D,,.[A,DF] | %275
 ^D,,.[^F,C^D] E,,.[G,CE] | F,,.[A,CF] C,,.[A,CF] | F,,.[A,CF]!8vb(! F,,,!8vb)!.[A,CF] | %278
 C,,.[G,CE]!8vb(! G,,,!8vb)!.[G,CE] | C,,.[G,CE] E,,.[G,CE] | [D,,D,].[F,A,D] [D,,D,].[F,A,D] | %281
 [G,,,G,,].[F,G,B,D] [G,,,G,,].[F,G,B,D] | [C,C][A,,A,] [G,,G,][E,,E,] | %283
 [C,,C,][C,,G,,C,] [D,,D,][E,,E,] | [F,,F,].[A,CF] [C,,C,].[A,CF] | [F,,F,].[A,CF] [C,,C,].[A,CF] | %286
 [E,,E,].[G,CE] [G,,,G,,].[G,CE] | [C,,C,].[G,CE] [E,,E,].[G,CE] | %288
 [D,,D,].[F,A,D] [D,,D,].[F,A,D] | [G,,G,].[D,F,G,B,] [G,,G,].[D,F,G,B,] | %290
 [C,,C,].[E,G,C] [D,,D,].[F,B,D] | [^D,,^D,].[^F,C^D] [E,,E,].[G,CE] | [F,,F,].[A,CF] C,,.[A,CF] | %293
 C,,.[A,CF] C,,.[A,CF] | E,,.[G,CE] E,,.[G,CE] | E,,.[G,CE] E,,.[G,CE] | D,,.[F,A,D] D,,.[F,A,D] | %297
!8vb(! G,,,!8vb)!.[F,G,B,D] [G,,G,].[F,G,B,D] | [C,C][A,,A,] [G,,G,][E,,E,] | %299
 [C,,C,][D,,D,] [E,,E,][C,,C,] | [F,,C,F,][F,,C,F,] [A,,F,A,][A,,F,A,] | %301
 [C,C][C,C] [A,,F,A,][A,,F,A,] | [G,,E,G,][G,,E,G,] [C,G,C][C,G,C] | %303
 [E,G,E][E,G,E] [C,G,C][C,G,C] | [F,D][F,D] [D,B,][D,B,] | [G,,D,F,][G,,D,F,] [B,,F,G,][B,,F,G,] | %306
 [C,G,C][C,G,C] [D,G,D][D,G,D] | [^D,^D][D,D] [E,CE][E,CE] | [F,CF][F,CF] [A,FA][A,FA] | %309
 [DFA][DFA] [A,FA][A,FA] | [E,CE][E,CE] [E,CE][E,CE] | [E,C][E,C] [C,G,C][C,G,C] | %312
 [D,D][D,D] [C,C][C,C] | [B,,B,][B,,B,] [G,,G,][G,,G,] | [C,C][B,,B,] [_B,,_B,][G,,G,] | %315
 [E,,E,][C,,C,] [D,,D,][E,,E,] ||[M:4/4]!ped! [F,,F,]2 A,2 [A,C]2 [A,CF]2 | %317
 [A,C]2 [A,CF]2!ped-up!!ped!{F,,-} [F,,C,A,]2 [A,CF]2!ped-up! | %318
!ped!{E,,-} [E,,C,G,]2 [E,G,C]2 [G,CE]2 [CEG]2 | [EGc]2 [G,CE]2 [E,G,C]4!ped-up! | %320
!ped! D,,2 [D,C]2 [F,A,D]2 [F,A,D]2!ped-up! |!ped! [G,,,G,,]2 [F,D]2 [F,B,D]4!ped-up! | %322
!ped!{C,,-} [C,,G,,E,] [E,G,C]2 [E,G,C]!ped-up!!ped! [D,,D,] [F,B,D]2 [F,B,D]!ped-up! | %323
!ped! [^D,,^D,] [^F,C^D]2 [F,CD]!ped-up!!ped! [E,,E,]2 [C,,C,]2!ped-up! | %324
!ped! [F,,,F,,]2 [A,F]2 [A,CF]4!ped-up! | %325
!ped!{F,,-} [F,,C,A,]2 [A,CF]2!ped-up!!ped!{F,,-} [F,,C,_A,]2 [A,CF]2!ped-up! | %326
!ped!{E,,-} [E,,C,G,]2 [G,CE]6!ped-up! |!ped!{C,,-} [C,,G,,E,]2 [G,CE]2 [E,,E,]2 [E,G,C]2!ped-up! | %328
!ped! [D,,D,][F,A,D][F,E][A,F] [A,DF]4!ped-up! | %329
!ped! [G,,,G,,][D,F,G,B,][F,B,D][G,E] [G,B,DF]2!ped-up!!ped! [^G,,^G,]2!ped-up! | %330
!ped! [A,,A,][C,E,A,][E,A,C][A,CE] [CEA]2 [G,,G,]2!ped-up! | %331
!ped! [^F,,^F,][D,C][F,D][A,C^F]!ped-up!!ped!{=F,,-} [F,,C,_A,][=F,A,CD][A,CD=F][CDF_A]!ped-up! | %332
!ped!{C,,-} [C,,G,,E,][E,G,C][G,CE][G,CE]!ped-up!!ped! [A,,,A,,][E,G,^C][G,CE][G,CE]!ped-up! | %333
!ped!{D,,-} [D,,A,,F,][A,DF]!ped-up!!ped!{F,,-}[F,,A,][F,A,D]!ped-up!!ped!{F,,-} [F,,C,_A,][F,A,CD] !fermata![A,CDF]2!ped-up! | %334
[M:2/4][K:treble]!ped! (CG cG) | (CG _BG)!ped-up! |!ped! (CF AF)!ped-up! |!ped! (CF _AF)!ped-up! | %338
!ped! (CG cG)!ped-up! |!ped! (G,D FD)!ped-up! |!ped! (F,C DC)!ped-up! |!ped! (F,C DC)!ped-up! | %342
[K:bass]!ped! [C,G,C]2[K:treble] [Gce]2 | [ceg]2 [eg]2 | [egc']4- | %345
 [egc']2!ped-up![K:bass]!sfz!!8vb(! .[C,,,C,,]!8vb)! z |] %346
V:3
 x4 | x4 | x4 | x4 || x4 | x4 | E4- | E4 | x4 | x4 | ^F4- | F2 x2 | x4 | x4 | x4 | x4 | x4 | x4 | %18
 [Bd]4 | [Bd]2 x2 | x4 | x2 e2 | [^ce]4- | [ce]4 | x4 | x4 | x4 | x4 | x4 | x4 | x4 | G4 | x4 | %33
 x4 | x4 | x4 || x4 | x4 | x4 | x4 | x4 | x4 | x4 | x4 | x4 | x4 | x4 | x4 | x4 | x4 | x4 | x4 | %52
 x4 | x4 | x4 | x4 | x4 | x4 | x4 | x4 | x4 | x4 | x4 | x4 | x4 | x4 | x4 | x4 || x4 | x4 | x4 | %71
 z2 [ce]2 | [Ff]4 | B4 | x4 | x4 | x4 | c A2 A | x4 | x4 | x4 | x4 | x4 | x4 |!8va(! x4 | x4 | x4 | %87
 x4 | x4 | x4 | x4 | x4 | x4 | x4 | x4- | c'2 x2 | x4 | x4 | x4!8va)! | x4 || x4 | x4 | x4 | x4 | %104
 x4 | x4 | x4 | x2!8va(! x2!8va)! | x4 | x/!8va(! x7/2 | x!8va)! x3/2!8va(! x3/2!8va)! | %111
 x3/2!8va(! x5/2!8va)! | x4 | x4 | x4 | x4 || A4 | c2 _B2 | G4 | [C_B]4 | %120
 .[CFA].[CFA] .[CFA].[CFA] | .[CFA].[CFA] .[CFA].[CFA] | .[CFA].[CFA] .[CFA].[CFA] | %123
 .[CFA].[CFA] .[CFA].[CFA] | [EGc][EGc] [EGc][EGc] | [EGc][EGc] [EGc][EGc] | %126
 [EGc][EGc] [EGc][EGc] | [EGc][EGc] [EGc][EGc] | [CFA][CFA] [CFA][CFA] | [CFA][CFA] [CFA][CFA] | %130
 [DFGB][DFGB] [DFGB][DFGB]- | [DFGB]2 x2 || x4 | x4 | x4 | x4 | x4 | x4 | x4 | x4 | x4 | x4 | x4 | %143
 x4 | x4 | x4 | x4 | x4 || x4 | x4 | x4 | x4 | x4 | x4 | x4 | x4 | x2 [Gg]2- | x4 | x4 | x4 | x4 | %161
 x4 | x4 | x4 | x4 | x4 | x4 | x4 | x4 | x4 | x4 | x4 | [eg]<[eg] [eg]<[eg] | x4 | x4 | x4 | %176
 [EGc]2 x2 | x4 | x4 | x4 || x4 | x4 | x4 | x4 | x4 | x4 | x4 | x4 | x4 | x4 | x4 | x4 | x4 | x4 | %194
 x4 | x4 | x4 | x4 | x4 | x4 | x4 | x4 | x4 | x4 | [gc'e']/[gc'e'] z/ [gc'e']/[gc'] z/ | %205
 [g_b_d'e']/[gbd'] z/ [gbd']/[gbd'] z/ | [gbd']/[gbd'] z/ [gbe']/[gb] z/ | [gc'e']/[gc'e'] z/ x2 | %208
 [ceg]/[ceg] z/ [eg_b]/[egb] z/ | x4 | x4 | [a^c'e']/[ac'e'] z/ x2 | x4 | x4 | x4 | x4 | x4 | x4 | %218
 x4 | x4 || x4 | x4 | x4 | x4 | x4 | x4 | x4 | x4 | x4 | x4 | x4 | x4 | x4 | x4 | x4 | x!8va(! x3 | %236
 x4 | x4 | x4 | x4 | x4 | x4 | x4 | x4 | x4 | x4 | x4 | x4 | x4 | x4 | x4!8va)! | x4 | ac/f/ ac | %253
 c'c ac | gc c'c | x4 | fA x2 | x4 | e/G/c/e/ f/A/d/f/ | ^f/c/^d/f/ g/c/e/g/ | aA ca | x4 | gG ce | %263
 x4 | fA df | x4 | x4 | x4 | x2!8va(! x2!8va)! | x3/2!8va(! x3/2!8va)! x | x2!8va(! x2!8va)! | %271
 x3/2!8va(! x5/2 | x2!8va)! x2 |!8va(! x2!8va)! x2 | x4 | x4 |!8va(! x2!8va)! x2 | %277
!8va(! x3/2!8va)! x5/2 | x2!8va(! x2!8va)! | x4 | x4 | x4 | x4 | x4 | x4 | x4 | x4 | x4 | x4 | x4 | %290
 x4 | x4 | x2!8va(! x2 | x2!8va)! x2 | x2!8va(! x2 | x2!8va)! x2 | x4 | x4 | x4 | x4 | x4 | x4 | %302
 x4 | x4 | x4 | x4 | x4 | x4 | x4 | x4 | x4 | x4 | x4 | x4 | x4 | x4 ||[M:4/4] x8 | x8 | x8 | x8 | %320
 x8 | x8 | x8 | x8 | x8 | f4 x4 | x8 | c4 x4 | x8 | x8 | x8 | x8 | x8 | x8 |[M:2/4] x4 | x4 | x4 | %337
 x4 | x4 | x4 | x4 | x4 | x2!8va(! x2 | x4 | x4 | x4!8va)! |] %346
V:4
 x4 | x4 | x4 | x4 || x4 | x4 | x4 | x4 | x4 | x4 | x4 | x4 | x4 | x4 | x4 | x4 | x4 | x4 | x4 | %19
 x4 | x4 | x4 | x4 | x4 | x4 | x4 | x4 | x4 | x4 | x4 | x4 | x4 | x4 | x4 | x4 | x4 || x4 | x4 | %38
 x4 | x4 | x4 | x4 | x4 | x4 | x4 | x4 | x4 | x4 | x4 | x4 | x4 | x4 | x4 | x4 | x4 | x4 | x4 | %57
 x4 | x4 | x4 | x4 | x4 | x4 | x4 | x4 | x4 | x4 | x4 || x4 | x4 | x4 | x4 | x4 | x4 | x4 | x4 | %76
 x4 | x4 | x4 | x4 | x4 | x4 | x4 | x4 |!8va(! c'4 | x4 | c'4 | x4 | a4 | x4 | x4 | x4 | %92
 !///-![f'a']2 a2 | !///-![f'a'] a x2 | c'4 | x4 | a4 | !///-![d'f'] f x2 | x4!8va)! | x4 || x4 | %101
 x4 | x4 | x4 | x4 | x4 | x4 | x2!8va(! x2!8va)! | x4 | x/!8va(! x7/2 | %110
 x!8va)! x3/2!8va(! x3/2!8va)! | x3/2!8va(! x5/2!8va)! | x4 | x4 | x4 | x4 || x4 | x4 | x4 | x4 | %120
 x4 | x4 | x4 | x4 | x4 | x4 | x4 | x4 | x4 | x4 | x4 | x4 || x4 | x4 | x4 | x4 | x4 | x4 | x4 | %139
 x4 | x4 | x4 | x4 | x4 | x4 | x4 | x4 | x4 || x4 | x4 | x4 | x4 | x4 | x4 | x4 | x4 | x4 | x4 | %158
 x4 | x4 | x4 | x4 | x4 | x4 | x4 | x4 | x4 | x4 | x4 | x4 | x4 | x4 | x4 | x4 | x4 | x4 | x4 | %177
 x4 | x4 | x4 || x4 | x4 | x4 | x4 | x4 | x4 | x4 | x4 | x4 | x4 | x4 | x4 | x4 | x4 | x4 | x4 | %196
 x4 | x4 | x4 | x4 | x4 | x4 | x4 | x4 | x4 | x4 | x4 | x4 | x4 | x4 | x4 | x4 | x4 | x4 | x4 | %215
 x4 | x4 | x4 | x4 | x4 || x4 | x4 | x4 | x4 | x4 | x4 | x4 | x4 | x4 | x4 | x4 | x4 | x4 | x4 | %234
 x4 | x!8va(! x3 | x4 | x4 | x4 | x4 | x4 | x4 | x4 | x4 | x4 | x4 | x4 | x4 | x4 | x4 | x4!8va)! | %251
 x4 | x4 | x4 | x4 | x4 | x4 | x4 | x4 | x4 | x4 | x4 | x4 | x4 | x4 | x4 | x4 | x4 | %268
 x2!8va(! x2!8va)! | x3/2!8va(! x3/2!8va)! x | x2!8va(! x2!8va)! | x3/2!8va(! x5/2 | x2!8va)! x2 | %273
!8va(! x2!8va)! x2 | x4 | x4 |!8va(! x2!8va)! x2 |!8va(! x3/2!8va)! x5/2 | x2!8va(! x2!8va)! | x4 | %280
 x4 | x4 | x4 | x4 | x4 | x4 | x4 | x4 | x4 | x4 | x4 | x4 | x2!8va(! x2 | x2!8va)! x2 | %294
 x2!8va(! x2 | x2!8va)! x2 | x4 | x4 | x4 | x4 | x4 | x4 | x4 | x4 | x4 | x4 | x4 | x4 | x4 | x4 | %310
 x4 | x4 | x4 | x4 | x4 | x4 ||[M:4/4] x8 | x8 | x8 | x8 | x8 | x8 | x8 | x8 | x8 | x8 | x8 | x8 | %328
 x8 | x8 | x8 | x8 | x8 | x8 |[M:2/4] x4 | x4 | x4 | x4 | x4 | x4 | x4 | x4 | x2!8va(! x2 | x4 | %344
 x4 | x4!8va)! |] %346
V:5
 x4 | x4 | x4 | x4 || x4 | x4 | x4 | x4 | x4 | x4 | x4 | x4 | x4 | x4 | x4 | x4 | x4 | x4 | x4 | %19
 x4 | x4 | x4 | x4 | x4 | x4 | x4 | x4 | x4 | x4 | x4 | x4 | x4 | x4 | x4 | x4 | x4 || x4 | x4 | %38
 x4 | x4 | x4 | x4 | x4 | x4 | x4 | x4 | x4 | x4 | x4 | x4 | x4 | x4 | x4 | x4 | x4 | x4 | x4 | %57
 x4 | x4 | x4 | x4 | x4 | x4 | x4 | x4 | x4 | x4 | x4 || x4 | x4 | x4 | x4 | x4 | x4 | x4 | x4 | %76
 x4 | x4 | x4 | x4 | x4 | x4 | x4 | x4 |!8va(! !///-!a'2 a2 | x4 | !///-!g'2 g2 | x4 | %88
 !///-!f'2 f2 | x4 | !///-![c'e']2 e2 | x4 | x4 | x4 | !///-![e'g']2 g2 | x4 | !///-![d'f']2 f2 | %97
 x4 | x4!8va)! | x4 || x4 | x4 | x4 | x4 | x4 | x4 | x4 | x2!8va(! x2!8va)! | x4 | x/!8va(! x7/2 | %110
 x!8va)! x3/2!8va(! x3/2!8va)! | x3/2!8va(! x5/2!8va)! | x4 | x4 | x4 | x4 || x4 | x4 | x4 | x4 | %120
 x4 | x4 | x4 | x4 | x4 | x4 | x4 | x4 | x4 | x4 | x4 | x4 || x4 | x4 | x4 | x4 | x4 | x4 | x4 | %139
 x4 | x4 | x4 | x4 | x4 | x4 | x4 | x4 | x4 || x4 | x4 | x4 | x4 | x4 | x4 | x4 | x4 | x4 | x4 | %158
 x4 | x4 | x4 | x4 | x4 | x4 | x4 | x4 | x4 | x4 | x4 | x4 | x4 | x4 | x4 | x4 | x4 | x4 | x4 | %177
 x4 | x4 | x4 || x4 | x4 | x4 | x4 | x4 | x4 | x4 | x4 | x4 | x4 | x4 | x4 | x4 | x4 | x4 | x4 | %196
 x4 | x4 | x4 | x4 | x4 | x4 | x4 | x4 | x4 | x4 | x4 | x4 | x4 | x4 | x4 | x4 | x4 | x4 | x4 | %215
 x4 | x4 | x4 | x4 | x4 || x4 | x4 | x4 | x4 | x4 | x4 | x4 | x4 | x4 | x4 | x4 | x4 | x4 | x4 | %234
 x4 | x!8va(! x3 | x4 | x4 | x4 | x4 | x4 | x4 | x4 | x4 | x4 | x4 | x4 | x4 | x4 | x4 | x4!8va)! | %251
 x4 | x4 | x4 | x4 | x4 | x4 | x4 | x4 | x4 | x4 | x4 | x4 | x4 | x4 | x4 | x4 | x4 | %268
 x2!8va(! x2!8va)! | x3/2!8va(! x3/2!8va)! x | x2!8va(! x2!8va)! | x3/2!8va(! x5/2 | x2!8va)! x2 | %273
!8va(! x2!8va)! x2 | x4 | x4 |!8va(! x2!8va)! x2 |!8va(! x3/2!8va)! x5/2 | x2!8va(! x2!8va)! | x4 | %280
 x4 | x4 | x4 | x4 | x4 | x4 | x4 | x4 | x4 | x4 | x4 | x4 | x2!8va(! x2 | x2!8va)! x2 | %294
 x2!8va(! x2 | x2!8va)! x2 | x4 | x4 | x4 | x4 | x4 | x4 | x4 | x4 | x4 | x4 | x4 | x4 | x4 | x4 | %310
 x4 | x4 | x4 | x4 | x4 | x4 ||[M:4/4] x8 | x8 | x8 | x8 | x8 | x8 | x8 | x8 | x8 | x8 | x8 | x8 | %328
 x8 | x8 | x8 | x8 | x8 | x8 |[M:2/4] x4 | x4 | x4 | x4 | x4 | x4 | x4 | x4 | x2!8va(! x2 | x4 | %344
 x4 | x4!8va)! |] %346

